src/components/atoms/Logo/assets/logo.svg

<svg width="106" height="38" viewBox="0 0 106 38" fill="none" xmlns="http://www.w3.org/2000/svg">
<g clip-path="url(#clip0)">
<path d="M2.50049 15.3505V0.289551H5.83438V7.41455H12.4426V0.289551H15.7765V15.3505H12.4724V8.39931H5.83438V15.3505H2.50049Z" fill="#EDEBEE"/>
<path d="M26.463 15.5822C21.8492 15.5822 18.7236 12.3962 18.7236 7.791C18.7236 3.21478 21.8492 0.0288086 26.463 0.0288086C31.0471 0.0288086 34.2024 3.21478 34.2024 7.791C34.2024 12.3962 31.0471 15.5822 26.463 15.5822ZM26.463 0.984601C23.8733 0.984601 22.3552 3.56234 22.3552 7.791C22.3552 12.0197 23.8733 14.5974 26.463 14.5974C29.0528 14.5974 30.5709 12.0486 30.5709 7.791C30.5709 3.59131 29.0528 0.984601 26.463 0.984601Z" fill="#EDEBEE"/>
<path d="M40.245 0.289551V9.99229C40.245 13.0045 41.3166 14.2789 43.8766 14.2789C46.2579 14.2789 47.657 12.7438 47.657 10.1661C47.657 9.49992 47.6272 8.60205 47.5975 7.87797L47.27 0.289551H49.2346L48.8477 9.84748C48.6988 13.5258 46.8533 15.5822 43.1027 15.5822C38.846 15.5822 36.9111 13.9024 36.9111 10.224V0.289551H40.245Z" fill="#EDEBEE"/>
<path d="M61.7664 0.781857V2.89619C60.0101 1.59283 58.6408 1.01356 57.2716 1.01356C55.8725 1.01356 54.8902 1.8535 54.8902 3.041C54.8902 4.37332 55.6046 4.98155 58.7004 6.48765C61.5282 7.84893 62.6594 9.15228 62.6594 11.0349C62.6594 13.8444 60.5162 15.5822 57.0334 15.5822C55.2177 15.5822 53.4912 15.2636 52.2707 14.7422V12.6569C53.8186 13.8154 55.7237 14.5974 57.093 14.5974C58.7302 14.5974 59.8613 13.7575 59.8613 12.512C59.8613 11.0928 58.9981 10.2529 56.0809 8.86265C53.253 7.53033 52.241 6.31387 52.241 4.37332C52.241 1.76661 54.414 0.0288086 57.6288 0.0288086C58.9683 0.0288086 60.5162 0.289479 61.7664 0.781857Z" fill="#EDEBEE"/>
<path d="M65.4873 0.289551L68.8212 0.434368L75.6081 0.289551V1.76668L68.8212 1.24534V7.26973L74.1197 6.92217V8.39931L68.8212 8.13864V14.3658L75.7271 13.8734V15.3505L68.8212 15.2057L65.4873 15.3505V0.289551Z" fill="#EDEBEE"/>
<path d="M81.3531 14.3368C77.662 12.2804 76.8285 8.22553 79.2099 4.22858C81.5912 0.231624 85.6098 -1.10069 89.3009 0.984673C92.992 3.04108 93.8254 7.09595 91.4441 11.1219C89.0627 15.0899 85.0442 16.3932 81.3531 14.3368ZM88.9437 1.56394C86.2646 0.0578438 83.1391 1.47705 80.9364 5.18437C78.7336 8.89169 79.061 12.2225 81.7401 13.7286C84.4489 15.2347 87.5446 13.8155 89.7474 10.1371C91.9204 6.42979 91.6227 3.099 88.9437 1.56394Z" fill="#EDEBEE"/>
<path d="M95.6113 0.405518L97.4569 0.492408L104.899 0.405518V1.47716L97.4569 1.10064V7.79119L103.44 7.53052V8.60216L97.4569 8.39942V15.3506H95.6113V0.405518Z" fill="#EDEBEE"/>
<path d="M10.7161 21.3459V23.7209C8.75147 22.2727 7.23336 21.6066 5.65571 21.6066C4.07807 21.6066 2.97669 22.5334 2.97669 23.8657C2.97669 25.3428 3.7804 26.0669 7.26313 27.7468C10.4184 29.2819 11.6984 30.759 11.6984 32.8733C11.6984 36.0303 9.28728 37.9998 5.38781 37.9998C3.33389 37.9998 1.39905 37.6523 0.0595338 37.073V34.727C1.78602 36.0014 3.92923 36.8992 5.47711 36.8992C7.32266 36.8992 8.57287 35.9434 8.57287 34.5532C8.57287 32.9602 7.62033 32.0044 4.3162 30.4404C1.13114 28.9053 0 27.573 0 25.4008C0 22.4755 2.44089 20.5349 6.04268 20.5349C7.59056 20.5349 9.31705 20.8245 10.7161 21.3459Z" fill="#EDEBEE"/>
<path d="M27.4154 22.7362L22.0574 21.9832V37.7103H18.3068V21.9832L12.9189 22.7362V20.7957L20.1821 20.9405L27.4452 20.7957V22.7362H27.4154Z" fill="#EDEBEE"/>
<path d="M30.0049 20.7957H35.482C39.947 20.7957 42.7451 22.6203 42.7451 25.7774C42.7451 28.0075 41.4056 29.5426 39.054 30.2957L43.9358 37.7103H39.5303L35.2141 30.846H33.7555V37.7103H30.0049V20.7957ZM35.2141 21.8963L33.7555 21.7514V29.8902L35.2141 29.7453C37.4466 29.5136 38.6671 28.0365 38.6671 25.8063C38.6671 23.6051 37.4466 22.128 35.2141 21.8963Z" fill="#EDEBEE"/>
<path d="M61.2306 37.7103H56.9442L55.1284 33.6554L48.4606 33.8582L46.9722 37.7103H44.71L50.7229 24.8216L52.3898 20.564H53.1042L61.2306 37.7103ZM48.9964 32.5548L54.7117 32.6996L51.5861 25.6615L48.9964 32.5548Z" fill="#EDEBEE"/>
<path d="M66.8861 20.7957V31.6859C66.8861 35.0746 68.1066 36.4938 70.9642 36.4938C73.6432 36.4938 75.2209 34.756 75.2209 31.8886C75.2209 31.1356 75.1911 30.1219 75.1613 29.3109L74.8041 20.7957H77.0069L76.5604 31.5411C76.4116 35.6828 74.2981 37.9999 70.101 37.9999C65.3383 37.9999 63.1355 36.1173 63.1355 31.9755V20.7957H66.8861Z" fill="#EDEBEE"/>
<path d="M91.0569 21.3459V23.7209C89.0923 22.2727 87.5742 21.6066 85.9965 21.6066C84.4189 21.6066 83.3175 22.5334 83.3175 23.8657C83.3175 25.3428 84.1212 26.0669 87.6039 27.7468C90.7592 29.2819 92.0392 30.759 92.0392 32.8733C92.0392 36.0303 89.6281 37.9998 85.7286 37.9998C83.6747 37.9998 81.7399 37.6523 80.4004 37.073V34.727C82.1268 36.0014 84.2701 36.8992 85.8179 36.8992C87.6635 36.8992 88.9137 35.9434 88.9137 34.5532C88.9137 32.9602 87.9612 32.0044 84.657 30.4404C81.472 28.9343 80.3408 27.602 80.3408 25.4008C80.3408 22.4755 82.7817 20.5349 86.3835 20.5349C87.9314 20.5349 89.6579 20.8245 91.0569 21.3459Z" fill="#EDEBEE"/>
<path d="M105.018 21.3459V23.7209C103.053 22.2727 101.535 21.6066 99.9572 21.6066C98.3796 21.6066 97.2782 22.5334 97.2782 23.8657C97.2782 25.3428 98.0819 26.0669 101.565 27.7468C104.72 29.2819 106 30.759 106 32.8733C106 36.0303 103.589 37.9998 99.6893 37.9998C97.6354 37.9998 95.7006 37.6523 94.3611 37.073V34.727C96.0875 36.0014 98.2308 36.8992 99.7786 36.8992C101.624 36.8992 102.874 35.9434 102.874 34.5532C102.874 32.9602 101.922 32.0044 98.6177 30.4404C95.4327 28.9343 94.3015 27.602 94.3015 25.4008C94.3015 22.4755 96.7424 20.5349 100.344 20.5349C101.862 20.5349 103.619 20.8245 105.018 21.3459Z" fill="#EDEBEE"/>
</g>
<defs>
<clipPath id="clip0">
<rect width="106" height="38" fill="white"/>
</clipPath>
</defs>
</svg>

<svg xmlns="http://www.w3.org/2000/svg" fill="none" viewBox="0 0 106 38">
  <defs />
  <g fill="currentColor" clip-path="url(#clip0)">
    <path d="M2.5 15.35V.29h3.334v7.125h6.609V.29h3.334v15.06h-3.305V8.4H5.834v6.95H2.5zM26.463 15.582c-4.614 0-7.74-3.186-7.74-7.791 0-4.576 3.126-7.762 7.74-7.762 4.584 0 7.74 3.186 7.74 7.762 0 4.605-3.156 7.791-7.74 7.791zm0-14.597c-2.59 0-4.108 2.577-4.108 6.806s1.518 6.806 4.108 6.806 4.108-2.548 4.108-6.806c0-4.2-1.518-6.806-4.108-6.806zM40.245.29v9.702c0 3.012 1.072 4.287 3.632 4.287 2.38 0 3.78-1.535 3.78-4.113 0-.666-.03-1.564-.06-2.288L47.27.29h1.965l-.387 9.557c-.15 3.679-1.995 5.735-5.745 5.735-4.257 0-6.192-1.68-6.192-5.358V.29h3.334zM61.766.782v2.114c-1.756-1.303-3.125-1.882-4.494-1.882-1.4 0-2.382.84-2.382 2.027 0 1.332.715 1.94 3.81 3.447 2.828 1.36 3.96 2.664 3.96 4.547 0 2.81-2.144 4.547-5.627 4.547-1.815 0-3.542-.318-4.762-.84v-2.085c1.548 1.158 3.453 1.94 4.822 1.94 1.637 0 2.768-.84 2.768-2.085 0-1.42-.863-2.26-3.78-3.65-2.828-1.332-3.84-2.548-3.84-4.489 0-2.606 2.173-4.344 5.388-4.344 1.34 0 2.887.26 4.137.753zM65.487.29l3.334.144L75.608.29v1.477l-6.787-.522V7.27l5.299-.348V8.4l-5.299-.26v6.227l6.906-.493v1.478l-6.906-.145-3.334.145V.29zM81.353 14.337C77.662 12.28 76.83 8.226 79.21 4.229 81.59.232 85.61-1.101 89.3.985c3.692 2.056 4.525 6.11 2.144 10.137-2.381 3.968-6.4 5.271-10.09 3.215zm7.59-12.773c-2.678-1.506-5.804-.087-8.007 3.62-2.202 3.708-1.875 7.038.804 8.545 2.709 1.506 5.805.087 8.007-3.592 2.173-3.707 1.876-7.038-.803-8.573zM95.611.406l1.846.086 7.442-.086v1.071l-7.442-.376v6.69l5.983-.26v1.071L97.457 8.4v6.952H95.61V.406zM10.716 21.346v2.375c-1.965-1.448-3.483-2.114-5.06-2.114-1.578 0-2.68.926-2.68 2.259 0 1.477.804 2.2 4.287 3.88 3.155 1.536 4.435 3.013 4.435 5.127 0 3.157-2.41 5.127-6.31 5.127-2.054 0-3.989-.348-5.328-.927v-2.346c1.726 1.274 3.87 2.172 5.417 2.172 1.846 0 3.096-.956 3.096-2.346 0-1.593-.953-2.549-4.257-4.113C1.131 28.905 0 27.573 0 25.4c0-2.924 2.44-4.865 6.043-4.865 1.548 0 3.274.29 4.673.81zM27.415 22.736l-5.358-.753V37.71h-3.75V21.983l-5.388.753v-1.94l7.263.145 7.263-.145v1.94h-.03zM30.005 20.796h5.477c4.465 0 7.263 1.824 7.263 4.981 0 2.23-1.34 3.766-3.691 4.519l4.882 7.414H39.53l-4.316-6.864h-1.459v6.864h-3.75V20.796zm5.21 1.1l-1.46-.145v8.14l1.46-.146c2.232-.231 3.452-1.709 3.452-3.939 0-2.2-1.22-3.678-3.453-3.91zM61.23 37.71h-4.286l-1.816-4.055-6.667.203-1.489 3.852H44.71l6.013-12.888 1.667-4.258h.714l8.127 17.146zm-12.234-5.155l5.716.145-3.126-7.039-2.59 6.894zM66.886 20.796v10.89c0 3.389 1.22 4.808 4.078 4.808 2.68 0 4.257-1.738 4.257-4.605 0-.753-.03-1.767-.06-2.578l-.357-8.515h2.203L76.56 31.54C76.412 35.683 74.298 38 70.101 38c-4.763 0-6.965-1.883-6.965-6.024v-11.18h3.75zM91.057 21.346v2.375c-1.965-1.448-3.483-2.114-5.06-2.114-1.578 0-2.68.926-2.68 2.259 0 1.477.804 2.2 4.287 3.88 3.155 1.536 4.435 3.013 4.435 5.127 0 3.157-2.41 5.127-6.31 5.127-2.054 0-3.99-.348-5.329-.927v-2.346c1.727 1.274 3.87 2.172 5.418 2.172 1.846 0 3.096-.956 3.096-2.346 0-1.593-.953-2.549-4.257-4.113-3.185-1.506-4.316-2.838-4.316-5.04 0-2.924 2.44-4.865 6.043-4.865 1.547 0 3.274.29 4.673.81zM105.018 21.346v2.375c-1.965-1.448-3.483-2.114-5.06-2.114-1.578 0-2.68.926-2.68 2.259 0 1.477.804 2.2 4.287 3.88C104.72 29.283 106 30.76 106 32.874 106 36.03 103.589 38 99.69 38c-2.055 0-3.99-.348-5.329-.927v-2.346c1.727 1.274 3.87 2.172 5.418 2.172 1.845 0 3.095-.956 3.095-2.346 0-1.593-.952-2.549-4.256-4.113-3.185-1.506-4.316-2.838-4.316-5.04 0-2.924 2.44-4.865 6.042-4.865 1.518 0 3.275.29 4.674.81z" />
  </g>
  <defs>
    <clipPath id="clip0">
      <path fill="#fff" d="M0 0h106v38H0z" />
    </clipPath>
  </defs>
</svg>
